app/static/monitorpanel.svg

<svg clip-rule="evenodd" fill-rule="evenodd" height="1118" stroke-linejoin="round" stroke-miterlimit="1.5" width="1391" xmlns="http://www.w3.org/2000/svg"><path d="m125.78 1025.2s4.554 76.21 43.634 77.66c39.081 1.45 957.046 8.56 1023.846 7.07 33.2-.74 48.47-62.78 44.64-93.69" fill="#c4c4c4" stroke="#000" stroke-width="14.17"/><path d="m1380.88 94.489c3.62 163.085 4.59 649.346-.98 859.239-1.09 41.211-45.3 82.472-89.71 83.332-242.85 4.68-733.821-.16-1189.982-5-44.468-.48-89.817-49.472-90.684-90.688-4.472-212.361-1.287-563.454-2-846.883-.104-41.225 29.826-79.049 74.289-79.872 199.565-3.697 724.807-8.675 1208.077-7.3 44.47.127 90.07 45.957 90.99 87.172z" fill="#2e3033" stroke="#000" stroke-width="14.17"/><g stroke-linecap="round"><path d="m90.776 101.403c-2.503 69.557-.969 835.403 4.427 839.994 20.787 17.682 494.087 14.311 616.243 14.311 11.437 0 574.904-.523 580.494-10.03 2.99-5.076 4.63-847.617-8.66-847.759-268.58-2.756-515.858-2.291-793.758-2.586-97.072-.103-398.566 1.07-398.746 6.07z" fill-rule="nonzero" stroke="#000" stroke-miterlimit="10" stroke-width="13.97"/><path d="m581.33 1069.19 181.894 2" fill="none" stroke="#8d8d8d" stroke-width="25"/><path d="m996.912 344.974s71.518-52.513 68.448-111.257c-.42-8.024-2.18-16.546-5.63-25.551-18.08-47.187-66.285-31.446-76.063-13.479-7.987 14.674-15.478 34.581 8.925 57.814 13.978 13.309 76.448 16.149 71.838-27.872" fill="none" stroke="#00b206" stroke-width="20.83"/><path d="m1168.19 183.986s-65.73 39.436-68.22 98.208c-.34 8.027.61 16.677 3.19 25.968 13.55 48.683 63.02 37.562 74.46 20.599 9.33-13.855 18.67-32.966-3.43-58.399-12.66-14.569-74.58-23.293-74.15 20.967" fill="none" stroke="#00b206" stroke-width="20.83"/><path d="m120.377 312.034s18.518-.41 26.565-.155c8.047.256 8.5-16.65 16.208-19.342 14.389-5.025 18.948 19.238 18.948 19.238l14.469 19.405 17.173-139.08 8.471 144.537s9.11-23.044 12.888-23.96c15.853-3.841 8.355-30.339 24.824-35.584 23.271-7.41 21.865 35.355 35.932 35.368 14.066.014 34.312-.58 42.359-.325 8.048.255 8.501-16.65 16.209-19.342 14.389-5.025 18.947 19.238 18.947 19.238l14.47 19.405 8.444-134.803 17.2 140.26s9.823-21.568 12.888-23.96c11.823-9.225 13.715-37.419 30.949-36.112s15.739 35.883 29.806 35.896 35.19-2.221 48.892-6.806c24.62-8.238 57.429-41.503 65.82-69.218 10.174-33.607-23.205-47.338-42.796-19.657-14.839-27.661-48.215-15.933-42.587 15.412 5.048 28.119 29.819 56.307 58.186 71.598 13.2 7.116 73.826 8.885 75.543 6.059 7.36-12.116 8.364-20.101 20.536-18.776 7.592.826 11.513 11.348 18.403 16.547 7.028 5.302 5.568 22.328 9.465 22.067 7.15-.477 15.254-131.527 15.254-131.527l9.278 114.607s1.564 13.471 4.324 18.582c.334.619 3.538-22.108 12.376-24.882 9.993-3.137 15.517-31.356 32.465-32.698 14.604-1.156 16.925 20.71 26.668 29.749 6.241 5.79 54.172.576 54.172.576" fill="none" stroke="#00b206" stroke-width="6.25"/><path d="m177.73 775.83s.891 78.776 1.125 87.286" fill="none" stroke="#e056fd" stroke-width="16.67"/><path d="m311.609 775.83s.891 78.776 1.126 87.286" fill="none" stroke="#e056fd" stroke-width="16.67"/><path d="m393.051 766.897s-35.546 93.453-39.131 103.65" fill="none" stroke="#e056fd" stroke-width="16.67"/><path d="m215.749 787.651c6.879-14.193 31.791-30.636 48.552-3.578 11.62 18.758-47.803 79.043-47.803 79.043s58.743.346 56.414 0" fill="none" stroke="#e056fd" stroke-width="16.67"/><path d="m455.812 774.327s-36.657 21.991-38.042 54.765c-.189 4.476.337 9.299 1.779 14.48 7.553 27.148 35.143 20.946 41.517 11.487 5.206-7.726 10.412-18.383-1.912-32.565-7.059-8.125-41.589-12.989-41.348 11.692" fill="none" stroke="#e056fd" stroke-width="16.67"/><path d="m503.329 775.081s-21.09 60.787-11.577 60.819c9.512.033 54.919.175 54.919.175" fill="none" stroke="#e056fd" stroke-width="16.67"/><path d="m523.398 863.116s.106-48.779-.54-58.007" fill="none" stroke="#e056fd" stroke-width="16.67"/><path d="m629.884 766.897s-33.785 47.029.315 96.219" fill="none" stroke="#e056fd" stroke-width="16.67"/><path d="m830.336 863.116s33.785-47.029-.316-96.219" fill="none" stroke="#e056fd" stroke-width="16.67"/><path d="m688.989 770.381s-20.525 1.771-18.392 21.044c2.183 19.731 39.245 27.265 42.354 45.144 3.858 22.19-13.866 25.704-22.027 25.235-8.16-.469-21.189-7.202-19.444-23.352 1.876-17.363 40.158-28.273 40.153-48.486-.002-8.037-7.61-19.477-22.644-19.585z" fill="none" stroke="#e056fd" stroke-width="16.67"/><path d="m747.659 784.367s2.798-13.939 18.827-13.985c11.794-.035 31.795 9.897 20.612 27.583-4.599 7.272-18.956 17.042-18.956 17.042s25.677-5.361 23.36 26.694c-.77 10.642-9.959 20.853-24.167 20.103-8.724-.46-14.584-3.96-17.84-12.358" fill="none" stroke="#e056fd" stroke-width="16.67"/><path d="m1000 478.048s1.45 119.2.78 129.412" fill="none" stroke="#00b2ad" stroke-width="20.83"/><path d="m1064.87 478.048c-17.44 1.728-26.01 29.981-27.26 64.706-1.24 34.725 14.68 65.143 35.45 64.706 20.77-.438 31.76-42.691 31.04-64.706s-11.39-67.466-39.23-64.706z" fill="none" stroke="#00b2ad" stroke-width="20.83"/><path d="m1169.43 607.344c15.1-1.42 26.01-29.981 27.25-64.706 1.25-34.724-14.67-65.143-35.44-64.705-20.77.437-31.54 26.079-31.04 64.705.28 22.026 11.38 67.328 39.23 64.706z" fill="none" stroke="#00b2ad" stroke-width="20.83"/><path d="m154.475 576.956s15.225-47.231 26.575-51.82c15.288-6.182 65.501 68.461 70.115 57.342s17.749-53.541 33.398-52.396 46.979 54.123 56.612 48.102c9.633-6.02 19.103-48.856 27.125-51.746 20.048-7.222 52.862 58.664 64.336 54.715 11.473-3.948 12.937-61.782 31.953-53.45 19.017 8.332 48.96 61.146 58.858 54.685 9.899-6.46 13.454-56.394 29.637-54.382s49.368 57.811 59.414 52.99c10.046-4.822 11.922-51.686 29.579-51.121 17.656.565 44.953 50.883 57.014 52.475 12.061 1.591 21.296-52.64 36.187-51.569 14.892 1.07 47.266 53.087 60.2 53.77 12.935.682 17.739-59.686 35.794-56.989 18.054 2.697 42.179 57.833 55.012 58.66" fill="none" stroke="#00b2ad" stroke-width="12.5"/><path d="m989.957 786.613s.834 68.9.446 74.803" fill="none" stroke="#fff" stroke-width="12.5"/><path d="m1027.45 786.613c-10.08.998-15.04 17.329-15.75 37.401-.72 20.072 8.48 37.655 20.48 37.402 12.01-.253 18.37-24.676 17.95-37.402-.42-12.725-6.59-38.997-22.68-37.401z" fill="none" stroke="#fff" stroke-width="12.5"/><path d="m1095.29 799.116s2.26-11.285 15.24-11.323c9.55-.027 25.74 8.014 16.69 22.333-3.73 5.887-15.35 13.797-15.35 13.797s20.79-4.34 18.91 21.612c-.62 8.616-8.06 16.883-19.57 16.277-7.06-.373-11.8-3.207-14.44-10.006" fill="none" stroke="#fff" stroke-width="12.5"/><path d="m1161.66 789.485s-17.07 49.215-9.37 49.241c7.7.027 44.46.142 44.46.142" fill="none" stroke="#fff" stroke-width="12.5"/><path d="m1177.91 860.761s.09-39.493-.44-46.964" fill="none" stroke="#fff" stroke-width="12.5"/></g><circle cx="1071.34" cy="801.098" fill="#fff" r="5.3"/><circle cx="1071.34" cy="842.132" fill="#fff" r="5.3"/></svg>

<?xml version="1.0" encoding="UTF-8" standalone="no"?><!DOCTYPE svg PUBLIC "-//W3C//DTD SVG 1.1//EN" "http://www.w3.org/Graphics/SVG/1.1/DTD/svg11.dtd"><svg width="1391px" height="1118px" version="1.1" xmlns="http://www.w3.org/2000/svg" xmlns:xlink="http://www.w3.org/1999/xlink" xml:space="preserve" xmlns:serif="http://www.serif.com/" style="fill-rule:evenodd;clip-rule:evenodd;stroke-linejoin:round;stroke-miterlimit:1.5;"><g><g><path d="M125.78,1025.2C125.78,1025.2 130.334,1101.41 169.414,1102.86C208.495,1104.31 1126.46,1111.42 1193.26,1109.93C1226.46,1109.19 1241.73,1047.15 1237.9,1016.24" style="fill:rgb(196,196,196);stroke:black;stroke-width:14.17px;"/><path d="M1380.88,94.489C1384.5,257.574 1385.47,743.835 1379.9,953.728C1378.81,994.939 1334.6,1036.2 1290.19,1037.06C1047.34,1041.74 556.369,1036.9 100.208,1032.06C55.74,1031.58 10.391,982.588 9.524,941.372C5.052,729.011 8.237,377.918 7.524,94.489C7.42,53.264 37.35,15.44 81.813,14.617C281.378,10.92 806.62,5.942 1289.89,7.317C1334.36,7.444 1379.96,53.274 1380.88,94.489Z" style="fill:rgb(46,48,51);stroke:black;stroke-width:14.17px;"/><path d="M90.776,101.403C88.273,170.96 89.807,936.806 95.203,941.397C115.99,959.079 589.29,955.708 711.446,955.708C722.883,955.708 1286.35,955.185 1291.94,945.678C1294.93,940.602 1296.57,98.061 1283.28,97.919C1014.7,95.163 767.422,95.628 489.522,95.333C392.45,95.23 90.956,96.403 90.776,101.403Z" style="fill-rule:nonzero;stroke:black;stroke-width:13.97px;stroke-linecap:round;stroke-miterlimit:10;"/><path d="M581.33,1069.19L763.224,1071.19" style="fill:none;stroke:rgb(141,141,141);stroke-width:25px;stroke-linecap:round;"/></g><g><g><path d="M996.912,344.974C996.912,344.974 1068.43,292.461 1065.36,233.717C1064.94,225.693 1063.18,217.171 1059.73,208.166C1041.65,160.979 993.445,176.72 983.667,194.687C975.68,209.361 968.189,229.268 992.592,252.501C1006.57,265.81 1069.04,268.65 1064.43,224.629" style="fill:none;stroke:rgb(0,178,6);stroke-width:20.83px;stroke-linecap:round;"/><path d="M1168.19,183.986C1168.19,183.986 1102.46,223.422 1099.97,282.194C1099.63,290.221 1100.58,298.871 1103.16,308.162C1116.71,356.845 1166.18,345.724 1177.62,328.761C1186.95,314.906 1196.29,295.795 1174.19,270.362C1161.53,255.793 1099.61,247.069 1100.04,291.329" style="fill:none;stroke:rgb(0,178,6);stroke-width:20.83px;stroke-linecap:round;"/></g><path d="M120.377,312.034C120.377,312.034 138.895,311.624 146.942,311.879C154.989,312.135 155.442,295.229 163.15,292.537C177.539,287.512 182.098,311.775 182.098,311.775L196.567,331.18L213.74,192.1L222.211,336.637C222.211,336.637 231.321,313.593 235.099,312.677C250.952,308.836 243.454,282.338 259.923,277.093C283.194,269.683 281.788,312.448 295.855,312.461C309.921,312.475 330.167,311.881 338.214,312.136C346.262,312.391 346.715,295.486 354.423,292.794C368.812,287.769 373.37,312.032 373.37,312.032L387.84,331.437L396.284,196.634L413.484,336.894C413.484,336.894 423.307,315.326 426.372,312.934C438.195,303.709 440.087,275.515 457.321,276.822C474.555,278.129 473.06,312.705 487.127,312.718C501.194,312.731 522.317,310.497 536.019,305.912C560.639,297.674 593.448,264.409 601.839,236.694C612.013,203.087 578.634,189.356 559.043,217.037C544.204,189.376 510.828,201.104 516.456,232.449C521.504,260.568 546.275,288.756 574.642,304.047C587.842,311.163 648.468,312.932 650.185,310.106C657.545,297.99 658.549,290.005 670.721,291.33C678.313,292.156 682.234,302.678 689.124,307.877C696.152,313.179 694.692,330.205 698.589,329.944C705.739,329.467 713.843,198.417 713.843,198.417L723.121,313.024C723.121,313.024 724.685,326.495 727.445,331.606C727.779,332.225 730.983,309.498 739.821,306.724C749.814,303.587 755.338,275.368 772.286,274.026C786.89,272.87 789.211,294.736 798.954,303.775C805.195,309.565 853.126,304.351 853.126,304.351" style="fill:none;stroke:rgb(0,178,6);stroke-width:6.25px;stroke-linecap:round;"/></g><g><g><path d="M177.73,775.83C177.73,775.83 178.621,854.606 178.855,863.116" style="fill:none;stroke:rgb(224,86,253);stroke-width:16.67px;stroke-linecap:round;"/><path d="M311.609,775.83C311.609,775.83 312.5,854.606 312.735,863.116" style="fill:none;stroke:rgb(224,86,253);stroke-width:16.67px;stroke-linecap:round;"/><path d="M393.051,766.897C393.051,766.897 357.505,860.35 353.92,870.547" style="fill:none;stroke:rgb(224,86,253);stroke-width:16.67px;stroke-linecap:round;"/><path d="M215.749,787.651C222.628,773.458 247.54,757.015 264.301,784.073C275.921,802.831 216.498,863.116 216.498,863.116C216.498,863.116 275.241,863.462 272.912,863.116" style="fill:none;stroke:rgb(224,86,253);stroke-width:16.67px;stroke-linecap:round;"/><path d="M455.812,774.327C455.812,774.327 419.155,796.318 417.77,829.092C417.581,833.568 418.107,838.391 419.549,843.572C427.102,870.72 454.692,864.518 461.066,855.059C466.272,847.333 471.478,836.676 459.154,822.494C452.095,814.369 417.565,809.505 417.806,834.186" style="fill:none;stroke:rgb(224,86,253);stroke-width:16.67px;stroke-linecap:round;"/><g><path d="M503.329,775.081C503.329,775.081 482.239,835.868 491.752,835.9C501.264,835.933 546.671,836.075 546.671,836.075" style="fill:none;stroke:rgb(224,86,253);stroke-width:16.67px;stroke-linecap:round;"/><path d="M523.398,863.116C523.398,863.116 523.504,814.337 522.858,805.109" style="fill:none;stroke:rgb(224,86,253);stroke-width:16.67px;stroke-linecap:round;"/></g><path d="M629.884,766.897C629.884,766.897 596.099,813.926 630.199,863.116" style="fill:none;stroke:rgb(224,86,253);stroke-width:16.67px;stroke-linecap:round;"/><path d="M830.336,863.116C830.336,863.116 864.121,816.087 830.02,766.897" style="fill:none;stroke:rgb(224,86,253);stroke-width:16.67px;stroke-linecap:round;"/><path d="M688.989,770.381C688.989,770.381 668.464,772.152 670.597,791.425C672.78,811.156 709.842,818.69 712.951,836.569C716.809,858.759 699.085,862.273 690.924,861.804C682.764,861.335 669.735,854.602 671.48,838.452C673.356,821.089 711.638,810.179 711.633,789.966C711.631,781.929 704.023,770.489 688.989,770.381Z" style="fill:none;stroke:rgb(224,86,253);stroke-width:16.67px;stroke-linecap:round;"/><path d="M747.659,784.367C747.659,784.367 750.457,770.428 766.486,770.382C778.28,770.347 798.281,780.279 787.098,797.965C782.499,805.237 768.142,815.007 768.142,815.007C768.142,815.007 793.819,809.646 791.502,841.701C790.732,852.343 781.543,862.554 767.335,861.804C758.611,861.344 752.751,857.844 749.495,849.446" style="fill:none;stroke:rgb(224,86,253);stroke-width:16.67px;stroke-linecap:round;"/></g></g><g><g><path d="M1000,478.048C1000,478.048 1001.45,597.248 1000.78,607.46" style="fill:none;stroke:rgb(0,178,173);stroke-width:20.83px;stroke-linecap:round;"/><path d="M1064.87,478.048C1047.43,479.776 1038.86,508.029 1037.61,542.754C1036.37,577.479 1052.29,607.897 1073.06,607.46C1093.83,607.022 1104.82,564.769 1104.1,542.754C1103.38,520.739 1092.71,475.288 1064.87,478.048Z" style="fill:none;stroke:rgb(0,178,173);stroke-width:20.83px;stroke-linecap:round;"/><path d="M1169.43,607.344C1184.53,605.924 1195.44,577.363 1196.68,542.638C1197.93,507.914 1182.01,477.495 1161.24,477.933C1140.47,478.37 1129.7,504.012 1130.2,542.638C1130.48,564.664 1141.58,609.966 1169.43,607.344Z" style="fill:none;stroke:rgb(0,178,173);stroke-width:20.83px;stroke-linecap:round;"/></g><path d="M154.475,576.956C154.475,576.956 169.7,529.725 181.05,525.136C196.338,518.954 246.551,593.597 251.165,582.478C255.779,571.359 268.914,528.937 284.563,530.082C300.212,531.227 331.542,584.205 341.175,578.184C350.808,572.164 360.278,529.328 368.3,526.438C388.348,519.216 421.162,585.102 432.636,581.153C444.109,577.205 445.573,519.371 464.589,527.703C483.606,536.035 513.549,588.849 523.447,582.388C533.346,575.928 536.901,525.994 553.084,528.006C569.267,530.018 602.452,585.817 612.498,580.996C622.544,576.174 624.42,529.31 642.077,529.875C659.733,530.44 687.03,580.758 699.091,582.35C711.152,583.941 720.387,529.71 735.278,530.781C750.17,531.851 782.544,583.868 795.478,584.551C808.413,585.233 813.217,524.865 831.272,527.562C849.326,530.259 873.451,585.395 886.284,586.222" style="fill:none;stroke:rgb(0,178,173);stroke-width:12.5px;stroke-linecap:round;"/></g><g><path d="M989.957,786.613C989.957,786.613 990.791,855.513 990.403,861.416" style="fill:none;stroke:white;stroke-width:12.5px;stroke-linecap:round;"/><path d="M1027.45,786.613C1017.37,787.611 1012.41,803.942 1011.7,824.014C1010.98,844.086 1020.18,861.669 1032.18,861.416C1044.19,861.163 1050.55,836.74 1050.13,824.014C1049.71,811.289 1043.54,785.017 1027.45,786.613Z" style="fill:none;stroke:white;stroke-width:12.5px;stroke-linecap:round;"/><path d="M1095.29,799.116C1095.29,799.116 1097.55,787.831 1110.53,787.793C1120.08,787.766 1136.27,795.807 1127.22,810.126C1123.49,816.013 1111.87,823.923 1111.87,823.923C1111.87,823.923 1132.66,819.583 1130.78,845.535C1130.16,854.151 1122.72,862.418 1111.21,861.812C1104.15,861.439 1099.41,858.605 1096.77,851.806" style="fill:none;stroke:white;stroke-width:12.5px;stroke-linecap:round;"/><g><path d="M1161.66,789.485C1161.66,789.485 1144.59,838.7 1152.29,838.726C1159.99,838.753 1196.75,838.868 1196.75,838.868" style="fill:none;stroke:white;stroke-width:12.5px;stroke-linecap:round;"/><path d="M1177.91,860.761C1177.91,860.761 1178,821.268 1177.47,813.797" style="fill:none;stroke:white;stroke-width:12.5px;stroke-linecap:round;"/></g><circle cx="1071.34" cy="801.098" r="5.3" style="fill:white;"/><circle cx="1071.34" cy="842.132" r="5.3" style="fill:white;"/></g></g></svg>
